X: 6474
T: Cat In The Cupboard, The
R: jig
M: 6/8
K: Cmajor
e|dBG GFD|ECC C2e|~f3 dec|BG^F GAB|
cGc dcd|ecE FEF|GcA BGF|DCB, C2e|
dBG GFD|ECC C2e|~f3 dec|BG^F GAB|
cGc dcd|ece ~f3|g^fg a=fd|dcB c2d|
|:ecc dcd|e2G GAc|~d3 GAc|ded dcd|
ecc dcd|eag edc|~d3 gfd|dcB c2d:|

